X: 1603
T: Rast Seyir
C: Şefik Gürmeriç
O: Turkey
F: http://compmusic.upf.edu/node/140
N: rast--seyir--duyek--1--sefik_gurmeric
N: makam= rast
N: form= seyir
N: usul= duyek = 8/4
M: 8/4
L: 1/16
K: C _1/4B ^f  
Q: 1/4=120
%%MIDI tuningsystem comma53
D2 G4 A2 B4 cd cB  | B3A AB AG G8  | \
w:   |   | 
z2 G4 A2 B2 c2 d2 e2  | 
w:   | 
d3c B2 c2 d8  | z2 d2 e2 f2 g4 =f2 e2  | \
w:   |   | 
e2 d2 d2 c2 dc B^A B4  | 
w:   | 
z2 =f4 fe e3d d3c  | c3B cB BA A8  | \
w:   |   | 
z2 c4 e2 d4 c2 B2  | 
w:   | 
B3A AB AG G8  | z2 A4 c2 B4 A2 B2  | \
w:   |   | 
A2 G2 G2 F2 F3E D4  | z2 G4 A2 B2 c2 d2 e2  | 
w:   |   | 
d2 c2 c2 B2 B3A G4  | c4 B2 A2 G3F E2 F2  | G16  | |


